build/img/sprite/vk.svg

<svg width="26" height="26" viewBox="0 0 26 26" fill="white" xmlns="http://www.w3.org/2000/svg">
  <g clip-path="url(#clip0_34_801)">
    <path d="M24.1754 1.82457C22.3509 0 19.4147 0 13.5418 0H12.4582C6.58531 0 3.64914 0 1.82457 1.82457C0 3.64914 0 6.58531 0 12.4582V13.5418C0 19.4147 0 22.3509 1.82457 24.1754C3.64914 26 6.58531 26 12.4582 26H13.5418C19.4147 26 22.3509 26 24.1754 24.1754C26 22.3509 26 19.4147 26 13.5418V12.4582C26 6.58531 26 3.64914 24.1754 1.82457ZM21.1286 18.4168H19.2324C18.5093 18.4168 18.2975 17.84 17.0117 16.5547C15.8864 15.47 15.4045 15.3293 15.1232 15.3293C14.7413 15.3293 14.627 15.4375 14.627 15.9793V17.6795C14.627 18.1457 14.4782 18.4168 13.2727 18.4168C11.2638 18.4168 9.05582 17.1971 7.48922 14.948C5.13855 11.6538 4.49566 9.16348 4.49566 8.66125C4.49566 8.37992 4.60434 8.125 5.14566 8.125H7.04234C7.5268 8.125 7.7091 8.33727 7.8909 8.86184C8.81816 11.5629 10.3822 13.9237 11.0251 13.9237C11.2658 13.9237 11.3765 13.8125 11.3765 13.2006V10.4086C11.3059 9.12336 10.6229 9.01773 10.6229 8.5607C10.6229 8.34895 10.8042 8.125 11.1054 8.125H14.0852C14.4874 8.125 14.627 8.3398 14.627 8.82172V12.578C14.627 12.9792 14.8017 13.1198 14.9221 13.1198C15.1633 13.1198 15.3644 12.9792 15.8062 12.5374C17.0628 11.1332 17.9795 9.0324 18.1182 8.70485C18.131 8.67482 18.1427 8.64613 18.1567 8.61667C18.2817 8.35356 18.5049 8.125 18.9617 8.125H20.8579C21.4312 8.125 21.5521 8.42004 21.4312 8.82172C21.2203 9.78795 19.4275 12.397 18.9806 13.037C18.9137 13.1328 18.8464 13.2285 18.7898 13.3306C18.6621 13.5614 18.646 13.723 18.88 14.0238C19.0811 14.3051 19.7437 14.8672 20.1855 15.3898C21.0001 16.3059 21.614 17.0788 21.7852 17.6114C21.9416 18.1457 21.6704 18.4168 21.1286 18.4168Z" fill="#30BC57" />
  </g>
  <defs>
    <clipPath id="clip0_34_801">
      <rect width="26" height="26" rx="6" fill="#30BC57" stroke="blue" />
    </clipPath>
  </defs>
</svg>

<svg xmlns="http://www.w3.org/2000/svg" width="26" height="26" fill="none"><g clip-path="url(#a)"><path fill="" d="M24.2 1.8C22.4 0 19.4 0 13.5 0h-1c-6 0-8.9 0-10.7 1.8C0 3.6 0 6.6 0 12.5v1c0 6 0 8.9 1.8 10.7C3.6 26 6.6 26 12.5 26h1c6 0 8.9 0 10.7-1.8C26 22.4 26 19.4 26 13.5v-1c0-6 0-8.9-1.8-10.7Zm-3 16.6h-2c-.7 0-.9-.6-2.2-1.8-1.1-1.1-1.6-1.3-1.9-1.3-.4 0-.5.1-.5.7v1.7c0 .4-.1.7-1.3.7-2 0-4.2-1.2-5.8-3.5-2.4-3.2-3-5.7-3-6.2 0-.3.1-.6.6-.6h2c.4 0 .6.2.8.8 1 2.7 2.5 5 3.1 5 .3 0 .4 0 .4-.7v-2.8c0-1.3-.8-1.4-.8-1.8 0-.3.2-.5.5-.5h3c.4 0 .5.2.5.7v3.8c0 .4.2.5.3.5.3 0 .5-.1 1-.6 1.2-1.4 2-3.5 2.2-3.8.2-.3.4-.6.9-.6h1.9c.5 0 .7.3.5.7-.2 1-2 3.6-2.4 4.2l-.2.3c-.1.3-.2.4 0 .7l1.4 1.4c.8 1 1.4 1.7 1.6 2.2.1.5-.1.8-.7.8Z"/></g><defs><clipPath id="a"><rect width="26" height="26" fill="" rx="6"/></clipPath></defs></svg>
